X: 83
T: No_44_I_Am_Standing_On_a_Cloud.krn
N: Derived from No_44_I_Am_Standing_On_a_Cloud.krn
%%abc-version 2.0
%%abcx-abcm2ps-target-version 5.9.1 (29 Sep 2008)
%%abc-creator hum2abc beta
%%abcx-conversion-date 2019/03/15 08:35:44
%%humdrum-veritas 1960294436
%%humdrum-veritas-data 69144382
%%linebreak <none>
%%barnumbers 0
L: 1/8
M: 2/4
K: Bb clef=bass
[K:clef=bass][M:2/4]C3/C/ C3/C/ ||  
[M:3/4]B,3/B,/ G, z B,3/C/ ||  
[M:2/4]B,4- | 
B,2B,3/G,/ | 
F,2F,2- ||  
[M:3/4]F,4z2 ||  
[M:2/4]B,3/B,/ B,3/G,/ ||  
[M:3/4]F,3/F,/ D, z F,3/G,/ | 
F,4F,3/D,/ ||  
[M:2/4]C,2B,,2- | 
B,,2z2 | 
C,3/C,/ C,3/C,/ ||  
[M:3/4]B,,3/B,,/ F,, z B,,3/C,/ ||  
[M:2/4]B,,4- | 
B,,2B,,3/G,,/ | 
F,,4 | 
F,,4 |]  



